X:1
T:Title
%%score { ( 1 3 4 ) | ( 2 5 6 ) }
L:1/8
M:2/4
K:F
V:1 treble nm="Grand Piano"
V:3 treble 
V:4 treble 
V:2 bass 
V:5 bass 
V:6 bass 
V:1
 z2 z[Q:1/4=100] C | FE FG | z .c3[K:bass] | FE FG | z2[K:bass] z[K:treble] A | BA GA | BG AB | %7
 [Ac]=B [Ac]B | [Ac]4 | [FAd][Ae] [FAd][Ac] | [FA] [Ac]2 [Ac] | [Ad]_e [^FAd][Ac] | [DGB]4 | %13
 .A2 z2[Q:1/4=97][Q:1/4=94][Q:1/4=91][Q:1/4=88][Q:1/4=84][Q:1/4=81][Q:1/4=78] | %14
[M:9/16] Cc/-cd/-d/c |[M:2/4] [EA]2 [B,EG]2 |[M:9/16] [A,F]4- [A,F]/ |] %17
V:2
 z4 | F,,2 [C,F,A,]2 | [F,A,C]2 z2 | F,,2 [C,F,A,]2 | [F,A,C]2 z2 | E4- | E2[K:treble] C2 | %7
 z _A z A | F2 z c | z F z F | z2 z[K:treble] F | z A z ^F | G,A, B,D | F,G, [=B,,_A,]2 | %14
[M:9/16] z[K:treble] [CF]/-[CF][B,DF]/-[B,DF]/[A,CF] |[M:2/4][K:bass] [C,C]2 [C,,C,]2 | %16
[M:9/16] [F,,C,]4- [F,,C,]/ |] %17
V:3
 x4 | x4 | .A2[K:bass] z C | x4 | A4[K:bass][K:treble] | x4 | x4 | x4 | x4 | x4 | x4 | x4 | x4 | %13
 D-[D-G] [DF]D |[M:9/16] x9/2 |[M:2/4] x4 |[M:9/16] x9/2 |] %17
V:4
 x4 | x4 | z2[K:bass] C,2 | x4 | z2[K:bass] C,2[K:treble] | x4 | x4 | x4 | x4 | x4 | x4 | x4 | x4 | %13
 x4 |[M:9/16] x9/2 |[M:2/4] x4 |[M:9/16] x9/2 |] %17
V:5
 x4 | x4 | x4 | x4 | x4 | G,2 C2 | C,2[K:treble] FG | F,2 C2 | z2 C2 | F,2 C,2 | z .F3[K:treble] | %11
 ^F,2 D,2 | x4 | B,,2 z2 |[M:9/16] [C,A,]3[K:treble] z3/2 |[M:2/4][K:bass] x4 |[M:9/16] x9/2 |] %17
V:6
 x4 | x4 | x4 | x4 | x4 | x4 | x2[K:treble] x2 | x4 | x4 | x4 | F,2 C,2[K:treble] | x4 | x4 | x4 | %14
[M:9/16] x[K:treble] x7/2 |[M:2/4][K:bass] x4 |[M:9/16] x9/2 |] %17

